X: 2977
T: Bass Rock, The
R: reel
M: 4/4
K: Gmajor
|:G3 d eGdB|Ag g2 eage|d2 ge dBGA|BGAB GE E2|
G3 d eGdB|Ag g2 eage|dged B3 d|1 edBA GDEF:|2 edBA GABd||
|:g3d eg ge|a3b aged|g3 d efge|dBAB GE E2|
[1 g3d eg ge|a3b aged|g3d efge|dBAB GABd:|
[2 GABd egge|a3b aged|bagb ageB|d2 eB dBAB||

